dist/img/svg/fuel.svg

<svg width="14" height="20" viewBox="0 0 14 20" fill="none" xmlns="http://www.w3.org/2000/svg">
<path d="M6.96023 20C5.70076 20 4.53409 19.6934 3.46023 19.0802C2.39962 18.4801 1.55777 17.6647 0.934659 16.6341C0.311553 15.5903 0 14.4553 0 13.229C0 10.9589 1.55114 7.49511 4.65341 2.83757C5.31629 1.83301 5.91951 0.97195 6.46307 0.254403C6.58239 0.084801 6.74811 0 6.96023 0C7.17235 0 7.3447 0.084801 7.47727 0.254403C7.57008 0.37182 7.68939 0.534899 7.83523 0.74364C7.98106 0.939335 8.23295 1.28506 8.59091 1.78082C8.96212 2.27658 9.32008 2.79191 9.66477 3.32681C10.0095 3.86171 10.3939 4.47489 10.8182 5.16634C11.2557 5.8578 11.6534 6.54925 12.0114 7.2407C12.3693 7.93216 12.7008 8.63014 13.0057 9.33464C13.3239 10.0261 13.5691 10.711 13.7415 11.3894C13.9138 12.0678 14 12.681 14 13.229C14 13.9596 13.8807 14.6706 13.642 15.362C13.4034 16.0535 13.0653 16.6797 12.6278 17.2407C12.2036 17.7887 11.6998 18.2714 11.1165 18.6888C10.5464 19.1063 9.90341 19.426 9.1875 19.6477C8.47159 19.8826 7.72917 20 6.96023 20ZM6.98011 1.70254C6.46307 2.42009 5.94602 3.17678 5.42898 3.9726C4.91193 4.76843 4.30208 5.75995 3.59943 6.94716C2.91004 8.12133 2.34659 9.27593 1.90909 10.411C1.48485 11.5329 1.27273 12.4723 1.27273 13.229C1.27273 14.7423 1.82955 16.0404 2.94318 17.1233C4.05682 18.2061 5.39583 18.7476 6.96023 18.7476C8.55114 18.7476 9.91004 18.2061 11.0369 17.1233C12.1638 16.0404 12.7273 14.7423 12.7273 13.229C12.7273 12.6941 12.6212 12.0744 12.4091 11.3699C12.2102 10.6523 11.9252 9.92172 11.554 9.17808C11.196 8.4214 10.8182 7.6908 10.4205 6.9863C10.0227 6.26875 9.58523 5.55121 9.10795 4.83366C8.64394 4.10307 8.24621 3.50946 7.91477 3.05284C7.59659 2.58317 7.28504 2.13307 6.98011 1.70254Z" fill="#C78E66"/>
</svg>

<svg width="14" height="20" viewBox="0 0 14 20" fill="none" xmlns="http://www.w3.org/2000/svg"><path d="M6.96 20a6.938 6.938 0 0 1-3.5-.92 6.83 6.83 0 0 1-2.525-2.446A6.524 6.524 0 0 1 0 13.23c0-2.27 1.551-5.734 4.653-10.391A49.28 49.28 0 0 1 6.463.254.574.574 0 0 1 6.96 0c.212 0 .385.085.517.254.093.118.212.28.358.49.146.195.398.541.756 1.037.371.496.73 1.01 1.074 1.546.345.535.729 1.148 1.153 1.84a27.71 27.71 0 0 1 1.193 2.074c.358.691.69 1.39.995 2.094.318.691.563 1.376.736 2.054.172.679.258 1.292.258 1.84 0 .73-.12 1.442-.358 2.133a6.454 6.454 0 0 1-1.014 1.879 7.183 7.183 0 0 1-1.511 1.448 6.482 6.482 0 0 1-1.93.959A7.098 7.098 0 0 1 6.96 20zm.02-18.297a57.053 57.053 0 0 0-1.551 2.27 85.845 85.845 0 0 0-1.83 2.974 23.688 23.688 0 0 0-1.69 3.464c-.424 1.122-.636 2.061-.636 2.818 0 1.513.557 2.811 1.67 3.894 1.114 1.083 2.453 1.625 4.017 1.625 1.591 0 2.95-.542 4.077-1.625 1.127-1.083 1.69-2.38 1.69-3.894 0-.535-.106-1.155-.318-1.86a12.234 12.234 0 0 0-.855-2.19 34.273 34.273 0 0 0-1.133-2.193 31.232 31.232 0 0 0-1.313-2.152 35.76 35.76 0 0 0-1.193-1.781c-.318-.47-.63-.92-.935-1.35z" fill="#C78E66"/></svg>
